X:3
T:Ballybunion Hop, The
T:Glenbeigh Hornpipe, The
R:barndance
Z:id:hn-barndance-3
M:4/4
L:1/8
K:G
BA | GABc dg (3fga | g2B2 d3B | ceAB cBcA | (3Bcd GA B2BA |
GABc dg (3fga | g2B2 d3B | ceAB cAFA |1 G2 B2 G2 :|2 G2 B2 GA ||
|: Bc | d2 b2 c2 a2 | Bggf gdBG | FGAB cAFA | GFGA BABc |
d2 b2 c2 a2 | Bggf gdBG | FGAB cAFA | G2 B2 G2 :|

